bundles/org.openhab.ui.habpanel/web/assets/icons/freepik-housethings/bathroom-drainage-of-circular-shape.svg

<svg xmlns="http://www.w3.org/2000/svg" width="567.057" height="567.057" style="enable-background:new 0 0 567.057 567.057" xml:space="preserve"><path d="M283.528 0C126.703 0 0 126.703 0 283.528s127.182 283.528 283.528 283.528 283.528-127.182 283.528-283.528S440.354 0 283.528 0zm-37.772 463.304h-66.459c-7.65 0-14.344-6.216-14.344-14.344 0-7.65 6.216-14.344 14.344-14.344h65.981c7.65 0 14.344 6.215 14.344 14.344.478 7.649-6.216 14.344-13.866 14.344zm0-47.335h-94.668c-7.65 0-14.344-6.216-14.344-14.344 0-7.649 6.215-14.344 14.344-14.344h94.668c7.65 0 14.344 6.216 14.344 14.344s-6.694 14.344-14.344 14.344zm0-47.334H122.878c-7.65 0-14.344-6.216-14.344-14.344 0-7.65 6.215-14.344 14.344-14.344h122.878c7.65 0 14.344 6.216 14.344 14.344s-6.694 14.344-14.344 14.344zm0-47.335H94.191c-7.65 0-14.344-6.215-14.344-14.344 0-8.128 6.215-14.344 14.344-14.344h151.087c7.65 0 14.344 6.216 14.344 14.344.478 8.129-6.216 14.344-13.866 14.344zm0-47.334H94.191c-7.65 0-14.344-6.216-14.344-14.344s6.215-14.344 14.344-14.344h151.087c7.65 0 14.344 6.216 14.344 14.344.478 8.128-6.216 14.344-13.866 14.344zm0-47.335H122.878c-7.65 0-14.344-6.215-14.344-14.344 0-7.65 6.215-14.344 14.344-14.344h122.878c7.65 0 14.344 6.216 14.344 14.344 0 8.129-6.694 14.344-14.344 14.344zm0-47.334h-94.668c-7.65 0-14.344-6.215-14.344-14.344 0-7.65 6.215-14.344 14.344-14.344h94.668c7.65 0 14.344 6.216 14.344 14.344 0 8.129-6.694 14.344-14.344 14.344zm0-46.856h-66.459c-7.65 0-14.344-6.216-14.344-14.344s6.216-14.344 14.344-14.344h65.981c7.65 0 14.344 6.215 14.344 14.344.478 7.65-6.216 14.344-13.866 14.344zm75.544-28.688h65.981c7.65 0 14.344 6.215 14.344 14.344 0 8.128-6.216 14.344-14.344 14.344H321.3c-7.649 0-14.344-6.216-14.344-14.344s6.694-14.344 14.344-14.344zm0 47.335h94.669c7.65 0 14.344 6.215 14.344 14.344 0 7.65-6.216 14.344-14.344 14.344H321.3c-7.649 0-14.344-6.216-14.344-14.344 0-8.129 6.694-14.344 14.344-14.344zm0 47.334h122.879c7.649 0 14.344 6.216 14.344 14.344 0 7.65-6.216 14.344-14.344 14.344H321.3c-7.649 0-14.344-6.215-14.344-14.344 0-8.128 6.694-14.344 14.344-14.344zm0 47.334h151.088c7.65 0 14.344 6.216 14.344 14.344s-6.216 14.344-14.344 14.344H321.3c-7.649 0-14.344-6.215-14.344-14.344 0-8.128 6.694-14.344 14.344-14.344zm66.46 217.548H321.3c-7.649 0-14.344-6.216-14.344-14.344 0-7.65 6.216-14.344 14.344-14.344h65.981c7.65 0 14.344 6.215 14.344 14.344 0 7.649-6.216 14.344-13.865 14.344zm28.209-47.335H321.3c-7.649 0-14.344-6.216-14.344-14.344 0-7.649 6.216-14.344 14.344-14.344h94.669c7.65 0 14.344 6.216 14.344 14.344s-6.694 14.344-14.344 14.344zm28.21-47.334H321.3c-7.649 0-14.344-6.216-14.344-14.344 0-7.65 6.216-14.344 14.344-14.344h122.879c7.649 0 14.344 6.216 14.344 14.344s-6.216 14.344-14.344 14.344zm28.687-47.335H321.3c-7.649 0-14.344-6.215-14.344-14.344 0-8.128 6.216-14.344 14.344-14.344h151.088c7.65 0 14.344 6.216 14.344 14.344-.001 8.129-6.216 14.344-13.866 14.344z"/></svg>

<?xml version="1.0" encoding="iso-8859-1"?>
<!-- Generator: Adobe Illustrator 16.0.0, SVG Export Plug-In . SVG Version: 6.00 Build 0)  -->
<!DOCTYPE svg PUBLIC "-//W3C//DTD SVG 1.1//EN" "http://www.w3.org/Graphics/SVG/1.1/DTD/svg11.dtd">
<svg version="1.1" id="Capa_1" xmlns="http://www.w3.org/2000/svg" xmlns:xlink="http://www.w3.org/1999/xlink" x="0px" y="0px"
	 width="567.057px" height="567.057px" viewBox="0 0 567.057 567.057" style="enable-background:new 0 0 567.057 567.057;"
	 xml:space="preserve">
<g>
	<path d="M283.528,0C126.703,0,0,126.703,0,283.528s127.182,283.528,283.528,283.528s283.528-127.182,283.528-283.528
		S440.354,0,283.528,0z M245.756,463.304h-66.459c-7.65,0-14.344-6.216-14.344-14.344c0-7.65,6.216-14.344,14.344-14.344h65.981
		c7.65,0,14.344,6.215,14.344,14.344C260.1,456.609,253.406,463.304,245.756,463.304z M245.756,415.969h-94.668
		c-7.65,0-14.344-6.216-14.344-14.344c0-7.649,6.215-14.344,14.344-14.344h94.668c7.65,0,14.344,6.216,14.344,14.344
		S253.406,415.969,245.756,415.969z M245.756,368.635H122.878c-7.65,0-14.344-6.216-14.344-14.344
		c0-7.65,6.215-14.344,14.344-14.344h122.878c7.65,0,14.344,6.216,14.344,14.344S253.406,368.635,245.756,368.635z M245.756,321.3
		H94.191c-7.65,0-14.344-6.215-14.344-14.344c0-8.128,6.215-14.344,14.344-14.344h151.087c7.65,0,14.344,6.216,14.344,14.344
		C260.1,315.085,253.406,321.3,245.756,321.3z M245.756,273.966H94.191c-7.65,0-14.344-6.216-14.344-14.344
		s6.215-14.344,14.344-14.344h151.087c7.65,0,14.344,6.216,14.344,14.344C260.1,267.75,253.406,273.966,245.756,273.966z
		 M245.756,226.631H122.878c-7.65,0-14.344-6.215-14.344-14.344c0-7.65,6.215-14.344,14.344-14.344h122.878
		c7.65,0,14.344,6.216,14.344,14.344C260.1,220.416,253.406,226.631,245.756,226.631z M245.756,179.297h-94.668
		c-7.65,0-14.344-6.215-14.344-14.344c0-7.65,6.215-14.344,14.344-14.344h94.668c7.65,0,14.344,6.216,14.344,14.344
		C260.1,173.082,253.406,179.297,245.756,179.297z M245.756,132.441h-66.459c-7.65,0-14.344-6.216-14.344-14.344
		c0-8.128,6.216-14.344,14.344-14.344h65.981c7.65,0,14.344,6.215,14.344,14.344C260.1,125.747,253.406,132.441,245.756,132.441z
		 M321.3,103.753h65.981c7.65,0,14.344,6.215,14.344,14.344c0,8.128-6.216,14.344-14.344,14.344H321.3
		c-7.649,0-14.344-6.216-14.344-14.344C306.956,109.969,313.65,103.753,321.3,103.753z M321.3,151.088h94.669
		c7.65,0,14.344,6.215,14.344,14.344c0,7.65-6.216,14.344-14.344,14.344H321.3c-7.649,0-14.344-6.216-14.344-14.344
		C306.956,157.303,313.65,151.088,321.3,151.088z M321.3,198.422h122.879c7.649,0,14.344,6.216,14.344,14.344
		c0,7.65-6.216,14.344-14.344,14.344H321.3c-7.649,0-14.344-6.215-14.344-14.344C306.956,204.638,313.65,198.422,321.3,198.422z
		 M321.3,245.756h151.088c7.65,0,14.344,6.216,14.344,14.344c0,8.128-6.216,14.344-14.344,14.344H321.3
		c-7.649,0-14.344-6.215-14.344-14.344C306.956,251.972,313.65,245.756,321.3,245.756z M387.76,463.304H321.3
		c-7.649,0-14.344-6.216-14.344-14.344c0-7.65,6.216-14.344,14.344-14.344h65.981c7.65,0,14.344,6.215,14.344,14.344
		C401.625,456.609,395.409,463.304,387.76,463.304z M415.969,415.969H321.3c-7.649,0-14.344-6.216-14.344-14.344
		c0-7.649,6.216-14.344,14.344-14.344h94.669c7.65,0,14.344,6.216,14.344,14.344S423.619,415.969,415.969,415.969z M444.179,368.635
		H321.3c-7.649,0-14.344-6.216-14.344-14.344c0-7.65,6.216-14.344,14.344-14.344h122.879c7.649,0,14.344,6.216,14.344,14.344
		S452.307,368.635,444.179,368.635z M472.866,321.3H321.3c-7.649,0-14.344-6.215-14.344-14.344c0-8.128,6.216-14.344,14.344-14.344
		h151.088c7.65,0,14.344,6.216,14.344,14.344C486.731,315.085,480.516,321.3,472.866,321.3z"/>
</g>
<g>
</g>
<g>
</g>
<g>
</g>
<g>
</g>
<g>
</g>
<g>
</g>
<g>
</g>
<g>
</g>
<g>
</g>
<g>
</g>
<g>
</g>
<g>
</g>
<g>
</g>
<g>
</g>
<g>
</g>
</svg>
